!!!!SEGMENT:pl-cz--iii-33--005_bolehovsky-josef-missa-pastoralis-in-d-sanctus.krn
!!!id: 18xx:676
!!!COM: Bolehovsky, Josef
!!!OTL: Missa Pastoralis in D – Sanctus
!!!PDT: 1821
!!!SMS-siglum: PL-CZ
!!!SMS-shelfmark: III-33
!!!SMS-variant:
!!!SMS-altvar:
!!!NIFC-rismID: 300237609
!!!system-decoration: [(s1,s2)][(s3,s4)][(s5)][(s6,s7,s8,s9)][(s10,s11)]s12
**kern	**fba	**kern	**dynam	**kern	**kern	**text	**kern	**text	**kern	**text	**kern	**text	**kern	**kern	**kern	**kern	**kern
*part12	*part12	*part11	*part11	*part10	*part9	*part9	*part8	*part8	*part7	*part7	*part6	*part6	*part5	*part4	*part3	*part2	*part1
*staff12	*staff12	*staff11	*	*staff10	*staff9	*staff9	*staff8	*staff8	*staff7	*staff7	*staff6	*staff6	*staff5	*staff4	*staff3	*staff2	*staff1
*I"Organo	*	*I"Violino IIdo	*	*I"Violino 1mo	*I"Baſso	*	*I"Tenore	*	*I"Alto	*	*I"Canto	*	*I"Timpano in D.	*I"Corni duee in D.	*I"Clarino Prinzipale in D	*I"Clarinetto 2do	*I"Clarinetto 1mo
*I'Org.	*	*I'Vn II	*	*I'Vn I	*I'B.	*	*I'T.	*	*I'A.	*	*I'C.	*	*I'Timp.	*I'C. in F	*I'Cl. in D	*I'Cl. II	*I'Cl. I
*clefF4	*	*clefG2	*	*clefG2	*clefF4	*	*clefC4	*	*clefC3	*	*clefC1	*	*clefF4	*clefG2	*clefG2	*clefG2	*clefG2
*	*	*	*	*	*	*	*	*	*	*	*	*	*	*ITrd6c10	*ITrd6c10	*	*
*k[f#]	*	*k[f#]	*	*k[f#]	*k[f#]	*	*k[f#]	*	*k[f#]	*	*k[f#]	*	*k[f#]	*k[f#]	*k[f#]	*k[f#]	*k[f#]
*M4/4	*	*M4/4	*	*M4/4	*M4/4	*	*M4/4	*	*M4/4	*	*M4/4	*	*M4/4	*M4/4	*M4/4	*M4/4	*M4/4
*met(c)	*	*met(c)	*	*met(c)	*met(c)	*	*met(c)	*	*met(c)	*	*met(c)	*	*met(c)	*met(c)	*met(c)	*met(c)	*met(c)
=1	=1	=1	=1	=1	=1	=1	=1	=1	=1	=1	=1	=1	=1	=1	=1	=1	=1
*2\right	*	*	*	*	*2\right	*	*2\right	*	*2\right	*	*2\right	*	*	*	*	*2\right	*2\right
!	!	!	!	!	!LO:SIC:o=S:v:t=w źródle 'S' znajduje się przed kluczem i oznaczeniem metrum	!	!LO:SIC:o=S:v:t=w źródle 'S' znajduje się przed kluczem i oznaczeniem metrum	!	!LO:SIC:o=S:v:t=w źródle 'S' znajduje się przed kluczem i oznaczeniem metrum	!	!LO:SIC:o=S:v:t=w źródle 'S' znajduje się przed kluczem i oznaczeniem metrum	!	!	!	!	!	!
!LO:SIC:o=Sanctus:v:t=w źródle 'Sanctus' znajduje się przed kluczem i oznaczeniem metrum	!	!LO:SIC:o=Sanctus:v:t=w źródle 'Sanctus' znajduje się przed kluczem i oznaczeniem metrum	!	!LO:SIC:o=Sanctus:v:t=w źródle 'Sanctus' znajduje się przed kluczem i oznaczeniem metrum, pod 'Sanctus' notatki dopisane ołówkiem	!	!	!	!	!	!	!	!	!	!	!	!	!
!	!	!	!	!	!	!	!	!	!	!	!	!	!	!LO:SIC:o=Sanctus:v:t=w źródle 'Sanctus' znajduje się przed kluczem i oznaczeniem metrum	!LO:SIC:o=Sanctus:v:t=w źródle 'Sanctus' znajduje się przed kluczem i oznaczeniem metrum	!LO:SIC:o=Sanctus:v:t=w źródle 'Sanctus' znajduje się przed kluczem i oznaczeniem metrum	!LO:SIC:o=Sanctus:v:t=w źródle 'Sanctus' znajduje się przed kluczem i oznaczeniem metrum
!	!	!	!	!	!	!	!LO:TX:a:t=P:w źródle błędnie oznaczony znak przykluczowy [jest a#, a powinien być f#]:problem	!	!LO:TX:a:t=P:w źródle błędnie oznaczony znak przykluczowy [jest e#, a powinien być f#]:problem	!	!	!	!	!	!	!	!
!	!	!	!	!	!	!	!	!	!	!	!	!	!	!	!	!	!LO:TX:a:t=P:w źródle błędnie oznaczony znak przykluczowy [jest e#, a powinien być f#]:problem
!	!	!	!	!	!	!	!	!	!	!	!	!	!	!LO:TX:a:t=P:w źródle brak znaku b- przy kluczu:problem	!LO:TX:a:t=P:w źródle brak znaku b- przy kluczu:problem	!	!
!LO:TX:a:t=P:w źródle ogonek przy oznaczeniu metrum [met(c)]:problem	!	!LO:TX:a:t=P:w źródle ogonek przy oznaczeniu metrum [met(c)]:problem	!	!	!	!	!LO:TX:a:t=P:w źródle ogonek przy oznaczeniu metrum [met(c)]; obok po prawej podwójna kreska taktowa:problem	!	!LO:TX:a:t=P:w źródle ogonek przy oznaczeniu metrum [met(c)]; obok po prawej podwójna kreska taktowa:problem	!	!LO:TX:a:t=P:w źródle ogonek przy oznaczeniu metrum [met(c)]:problem	!	!	!	!	!	!
!	!	!	!	!	!LO:TX:a:Bi:t=adagio	!	!LO:TX:a:Bi:t=adagio	!	!	!	!LO:TX:a:Bi:t=adigio	!	!	!	!	!	!
!	!	!	!	!	!	!	!	!	!	!	!	!	!	!LO:TX:a:Bi:t=adagio:rj	!LO:TX:a:Bi:t=adagio:rj	!LO:TX:a:Bi:t=adagio	!LO:TX:a:Bi:t=adagio
!LO:TX:a:Bi:t=and	!	!LO:TX:a:Bi:t=adagio	!	!LO:TX:a:Bi:t=adagio	!	!	!	!	!	!	!	!	!	!	!	!	!
!	!	!	!	!	!	!	!	!	!	!	!	!	!	!LO:TX:b:Bi:t=2.	!LO:TX:a:Bi:t=4.	!	!
8G'>\L	.	4B/	.	4g/	8G\	San-	8B\	San-	8d\	San-	8g\	San-	1ryy	0r	00r	4b`>\	4gg\
8G'>\	.	.	.	.	8G\	-ctus	8B\	-ctus	8d\	-ctus	8g\	-ctus	.	.	.	.	.
8G'>\	.	8c/L	.	(<8a/L	4r	.	4r	.	4r	.	4r	.	.	.	.	(>8ccn\L	(>8aa\L
8G'>\J	.	8B/J	.	8g/J)	.	.	.	.	.	.	.	.	.	.	.	8b\J)	8gg\J)
*tremolo	*	*	*	*	*	*	*	*	*	*	*	*	*	*	*	*	*
!LO:TX:a:t=P:w źródle 4 kreski nad tremolo [prawdopodobnie oznaczenie ilości nut w tremolo]:problem	!	!	!	!	!	!	!	!	!	!	!	!	!	!	!	!	!
8G\L	.	8e/L	.	(<8cc/L	2r	.	2r	.	2r	.	2r	.	.	.	.	(>8ee\L	(>8ccc\L
8G\	.	8d/J	.	8b/J)	.	.	.	.	.	.	.	.	.	.	.	8dd\J)	8bb\J)
8G\	.	4r	.	4r	.	.	.	.	.	.	.	.	.	.	.	4r	4r
8G\J	.	.	.	.	.	.	.	.	.	.	.	.	.	.	.	.	.
=2	=2	=2	=2	=2	=2	=2	=2	=2	=2	=2	=2	=2	=2	=2	=2	=2	=2
*	*	*	*	*	*	*ij	*	*ij	*	*ij	*	*ij	*	*	*	*	*
8G\L	9	4g/	.	4b\	8G\	San-	8d\	San-	8g\	San-	8b\	San-	1ryy	.	.	4gg'>\	4bb\
8G\	.	.	.	.	8G\	-ctus	8d\	-ctus	8g\	-ctus	8b\	-ctus	.	.	.	.	.
*	*	*	*	*	*	*Xij	*	*Xij	*	*Xij	*	*Xij	*	*	*	*	*
8G\	.	8a/L	.	(>8cc\L	4r	.	4r	.	4r	.	4r	.	.	.	.	(>8aa\L	(>8ccc\L
8G\J	.	8g/J	.	8b\J)	.	.	.	.	.	.	.	.	.	.	.	8gg\J)	8bb\J)
8G\L	1	8cc\L	.	(>8ee\L	2r	.	2r	.	2r	.	2r	.	.	.	.	8cc\L	(>8ee\L
8G\	.	8b\J	.	8dd\J)	.	.	.	.	.	.	.	.	.	.	.	8b\J	8dd\J)
8G\	.	4r	.	4r	.	.	.	.	.	.	.	.	.	.	.	4r	4r
8G\J	.	.	.	.	.	.	.	.	.	.	.	.	.	.	.	.	.
=3	=3	=3	=3	=3	=3	=3	=3	=3	=3	=3	=3	=3	=3	=3	=3	=3	=3
*	*	*	*	*	*	*	*	*	*	*	*	*	*	*^	*	*	*
*	*	*	*	*	*	*ij	*	*ij	*	*ij	*	*ij	*	*	*	*	*	*
!	!	!LO:TX:a:t=P:mixed beam:problem	!	!	!	!	!	!	!	!	!	!	!	!	!	!	!	!
8F#\L	5	16a/LL	.	8cc`>\L	4F#\	San-	4d\	San-	4a\	San-	4cc\	San-	1ryy	4d/	4D/	.	2aa\	2cc\
.	.	16d/	.	.	.	.	.	.	.	.	.	.	.	.	.	.	.	.
8F#\	.	16ff#\	.	(>16aa\L	.	.	.	.	.	.	.	.	.	.	.	.	.	.
.	.	16ee\JJ	.	16gg\JJ)	.	.	.	.	.	.	.	.	.	.	.	.	.	.
8F#\	.	16dd\LL	.	(>16ff#\LL	4F#\	-ctus	4d\	-ctus	4a\	-ctus	4cc\	-ctus	.	4r	4ryy	.	.	.
.	.	16cc\	.	16ee\	.	.	.	.	.	.	.	.	.	.	.	.	.	.
8F#\J	.	16b\	.	16dd\)	.	.	.	.	.	.	.	.	.	.	.	.	.	.
.	.	16a\JJ	.	16cc\JJ	.	.	.	.	.	.	.	.	.	.	.	.	.	.
*	*	*	*	*	*	*Xij	*	*Xij	*	*Xij	*	*Xij	*	*	*	*	*	*
!	!	!LO:TX:a:t=P:mixed beam:problem	!	!	!	!	!	!	!	!	!	!	!	!	!	!	!	!
8G\L	.	16g/LL	.	8b`>\L	8.G\	do-	8.d\	do-	8.g\	do-	8.b\	do-	.	4d/	4D/	.	2gg\	2b\
.	.	16d/	.	.	.	.	.	.	.	.	.	.	.	.	.	.	.	.
8G\	.	16gg\	.	(>16bb\L	.	.	.	.	.	.	.	.	.	.	.	.	.	.
.	.	16ff#\JJ	.	16aa\JJ)	16G\	-mi-	16d\	-mi-	16g\	-mi-	16b\	-mi-	.	.	.	.	.	.
8G\	.	16ee\LL	.	(>16gg\LL	4G\	-nus	4d\	-nus	4g\	-nus	4b\	-nus	.	4r	4ryy	.	.	.
.	.	16dd\	.	16ff#\	.	.	.	.	.	.	.	.	.	.	.	.	.	.
8G\J	.	16cc\	.	16ee\	.	.	.	.	.	.	.	.	.	.	.	.	.	.
.	.	16b\JJ	.	16dd\JJ)	.	.	.	.	.	.	.	.	.	.	.	.	.	.
=4	=4	=4	=4	=4	=4	=4	=4	=4	=4	=4	=4	=4	=4	=4	=4	=4	=4	=4
!	!	!LO:TX:a:t=P:mixed beam:problem	!	!	!	!	!	!	!	!	!	!	!	!	!	!	!	!
8F#\L	6 5	16a/LL	.	8cc\L	4F#\	de-	4d\	de-	4a\	de-	4cc\	De-	1ryy	4d/	4D/	.	2aa\	2cc\
.	.	16d/	.	.	.	.	.	.	.	.	.	.	.	.	.	.	.	.
8F#\	.	16ff#\	.	16aa\L	.	.	.	.	.	.	.	.	.	.	.	.	.	.
.	.	16ee\JJ	.	16gg\JJ	.	.	.	.	.	.	.	.	.	.	.	.	.	.
8F#\	.	16dd\LL	.	16ff#\LL	4F#\	-us	4d\	-us	4a\	-us	4cc\	-us	.	4r	4ryy	.	.	.
.	.	16cc\	.	16ee\	.	.	.	.	.	.	.	.	.	.	.	.	.	.
8F#\J	.	16b\	.	16dd\	.	.	.	.	.	.	.	.	.	.	.	.	.	.
.	.	16a\JJ	.	16cc\JJ	.	.	.	.	.	.	.	.	.	.	.	.	.	.
*Xtremolo	*	*	*	*	*	*	*	*	*	*	*	*	*	*	*	*	*	*
!	!	!	!	!LO:LB:g=original	!	!	!	!	!	!	!	!	!	!	!	!	!	!
8G\L	3_ 1_	4.g/	.	4.b\	(>8G\L	ſa-	4.d\	Sa-	4.g\	Sa-	4.b\	Sa-	.	4d/	4D/	.	4.gg\	4.bb\
8E\	.	.	.	.	8E\J)	.	.	.	.	.	.	.	.	.	.	.	.	.
8D\	.	.	.	.	(<8D/L	.	.	.	.	.	.	.	.	4r	4ryy	.	.	.
8C#X\J	X X	8g/	.	8b\	8C#X/J)	-ba-	8d\	-ba-	8g\	-ba-	8b\	-ba-	.	.	.	.	8gg\	8bb\
!	!	!LO:LB:g=original	!	!	!	!	!LO:LB:g=original	!	!	!	!	!	!	!	!	!	!	!
=5	=5	=5	=5	=5	=5	=5	=5	=5	=5	=5	=5	=5	=5	=5	=5	=5	=5	=5
!	!	!LO:TX:a:t=P:mixed beam:problem	!	!LO:TX:a:t=P:mixed beam:problem	!	!	!	!	!	!	!	!	!	!	!	!	!	!
8D\	.	8f#/L	.	8a/L	8D/	-oth	8d\	-oth	8f#\	-oth	8a\	-oth	1ryy	4d/	4D/	4d 4D/	4ff#X\	4aa\
8r	.	8ff#\	.	8aa\	8r	.	8r	.	8r	.	8r	.	.	.	.	.	.	.
!	!	!	!	!	!LO:LB:g=original	!	!	!	!	!	!	!	!	!	!	!	!	!
4r	.	8gg\	.	8bb\	4r	.	4r	.	4r	.	4r	.	.	4r	4ryy	4d 4D/	4r	4r
.	.	8ee\J	.	8aa\J	.	.	.	.	.	.	.	.	.	.	.	.	.	.
!	!	!LO:TX:a:t=P:mixed beam:problem	!	!	!	!	!	!	!	!	!	!	!	!	!	!	!	!
8D\	.	8dd\L	.	8ff#\L	2r	.	2r	.	2r	.	2r	.	.	2r	2ryy	4d 4D/	4a/	4ff#X\
8r	.	8a/	.	8ff#\	.	.	.	.	.	.	.	.	.	.	.	.	.	.
4r	.	8b/	.	8gg\	.	.	.	.	.	.	.	.	.	.	.	4d 4D/	8b/L	8gg\L
.	.	8g/J	.	8ee\J	.	.	.	.	.	.	.	.	.	.	.	.	8g/J	8ee\J
!	!	!	!	!	!	!	!	!	!LO:LB:g=original	!	!	!	!	!	!	!	!	!
=6	=6	=6	=6	=6	=6	=6	=6	=6	=6	=6	=6	=6	=6	=6	=6	=6	=6	=6
!	!	!	!	!LO:TX:a:t=P:w źródle pod tym taktem notatki dopisane ołówkiem:problem	!	!	!	!	!	!	!	!	!	!	!	!	!	!
8D\	.	8f#/	.	8dd\	8D\	ſa-	8A\	Sa-	8f#\	ſa-	8dd\	Sa-	1ryy	8f#/	8d\	8d 8D/	8a/	8dd\
8r	.	8r	.	8r	8r	.	8r	.	8r	.	8r	.	.	8r	8ryy	8r	8r	8r
8D\	.	8f#/	.	8dd\	8D\	-ba-	8A\	-ba-	8f#\	-ba-	8dd\	-ba-	.	8f#/	8d\	8d 8D/	8a/	8dd\
8r	.	8r	.	8r	8r	.	8r	.	8r	.	8r	.	.	8r	8ryy	8r	8r	8r
!	!	!	!	!	!	!	!	!	!	!	!LO:LB:g=original	!	!	!	!	!	!	!
4D;>\	.	4f#;>/	.	4dd;>\	4D;>\	-oth	4A;>\	-oth	4f#;>\	-oth	4dd;>\	-oth	.	4f#;>/	4d\	4d;> 4D/	4a;>/	4dd;>\
4r	.	4r	.	4r	4r	.	4r	.	4r	.	4r	.	.	4r	4ryy	4r	4r	4r
!LO:TX:a:t=P:w źródle ozdobna podwójna kreska taktowa &colon;||&colon;:problem	!	!LO:TX:a:t=P:w źródle ozdobna podwójna kreska taktowa &colon;||:problem	!	!	!	!	!	!	!	!	!	!	!	!LO:TX:a:t=P:w źródle ozdobna podwójna kreska taktowa &colon;||:problem	!	!LO:TX:a:t=P:w źródle ozdobna podwójna kreska taktowa &colon;||:problem	!LO:TX:a:t=P:w źródle ozdobna podwójna kreska taktowa &colon;||:problem	!
!LO:LB:g=original	!	!	!	!	!	!	!	!	!	!	!	!	!	!LO:LB:g=original	!	!LO:LB:g=original	!LO:LB:g=original	!
*	*	*	*	*	*	*	*	*	*	*	*	*	*	*v	*v	*	*	*
=7||	=7||	=7||	=7||	=7||	=7||	=7||	=7||	=7||	=7	=7	=7||	=7||	=7	=7||	=7||	=7||	=7||
*	*	*clefG2	*	*clefG2	*	*	*	*	*	*	*	*	*	*	*	*	*
*k[c#f#]	*	*k[c#f#]	*	*k[f#]	*k[f#]	*	*	*	*	*	*	*	*	*	*	*	*
*M3/4	*	*M3/4	*	*M3/4	*M3/4	*	*M3/4	*	*M3/4	*	*M3/4	*	*M3/4	*M3/4	*M3/4	*M3/4	*M3/4
!LO:TX:a:t=P:w źródle dwa znaki przykluczowe c# oraz f#:problem	!	!LO:TX:a:t=P:w źródle dwa znaki przykluczowe c# oraz f#:problem	!	!	!	!	!	!	!	!	!LO:TX:a:t=P:w źrodle metrum poprawiane przez skryptota z 3/8 na 3/4:problem	!	!	!	!	!	!
!	!	!LO:TX:a:t=P:w źródle w części 'Pleni' pojawiąja się w różnych miejscach znaki przypominające custos:problem	!	!	!	!	!	!	!	!	!	!	!	!	!	!	!
!LO:TX:a:Bi:t=Tutti	!	!LO:TX:a:Bi:t=allo	!	!LO:TX:a:Bi:t=allo	!	!	!	!	!	!	!	!	!	!LO:TX:b:Bi:t=Pleny:rj	!LO:TX:a:Bi:t=Pleny:problem:'Pleny' znajduje się po lewej stronie przed pięciolinią rozpoczynając nowy system	!	!
!LO:TX:a:Bi:t=Pleni:problem:'Pleni' znajduje się przed pięciolinią zaraz po podwójnej kresce taktowej w poprzednim systemie	!	!LO:TX:a:Bi:t=Pleni:problem:'Pleni' znajduje się przed pięciolinią zaraz po podwójnej kresce taktowej	!	!LO:TX:a:Bi:t=Pleni:problem:'Pleni' znajduje się przed pięciolinią zaraz po podwójnej kresce taktowej	!LO:TX:a:Bi:t=allo.	!	!LO:TX:a:Bi:t=allo	!	!	!	!	!	!	!LO:TX:a:Bi:t=allo.	!LO:TX:a:Bi:t=allo.:rj	!LO:TX:a:Bi:t=allo.	!LO:TX:a:Bi:t=allo.
!LO:TX:a:Bi:t=allo	!	!	!	!	!	!	!	!	!	!	!	!	!	!	!	!	!
!	!	!	!	!LO:TX:b:Bi:t=1.	!	!	!LO:TX:b:Bi:t=1	!	!LO:TX:b:Bi:t=1	!	!LO:TX:b:Bi:t=1	!	!	!LO:TX:b:Bi:t=4.	!LO:TX:a:Bi:t=1.	!LO:TX:b:Bi:t=1.	!LO:TX:b:Bi:t=1.
!	!	!	!	!	!	!	!	!	!	!	!	!	!	!LO:N:vis=00	!	!	!
4D\	4 3	2.r	.	2.r	4D\	ple-	2.r	.	2.r	.	2.r	.	2.ryy	0.r	2.r	2.r	2.r
4r	.	.	.	.	4F#\	-ni-	.	.	.	.	.	.	.	.	.	.	.
4r	.	.	.	.	4A\	-sunt	.	.	.	.	.	.	.	.	.	.	.
=8	=8	=8	=8	=8	=8	=8	=8	=8	=8	=8	=8	=8	=8	=8	=8	=8	=8
*clefC4	*	*	*	*	*	*	*	*	*	*	*	*	*	*	*	*	*
4r	.	4r	.	4r	4d\	Cae-	4r	.	4r	.	4r	.	2.ryy	.	4r	4r	4r
4r	.	4r	.	4r	4D/	-li	4r	.	4r	.	4r	.	.	.	4r	4r	4r
!	!	!	!	!	!	!	!LO:SIC:l:s=Cae-:v	!	!	!	!LO:SIC:l:s=Cae-:v	!	!	!	!	!	!
4d\	5 3	4f#/	.	4a/	4r	.	4d\	Ca-	4f#\	Cae-	4a\	Ca-	.	.	4d 4D/	4ff#X''>\	4aa`>\
=9	=9	=9	=9	=9	=9	=9	=9	=9	=9	=9	=9	=9	=9	=9	=9	=9	=9
!	!	!	!	!	!LO:TX:b:Bi:t=1	!	!	!	!	!	!	!	!	!	!	!	!
!	!	!	!	!	!	!	!	!	!LO:SIC:s=4g:v	!	!	!	!	!	!	!	!
4d\	6 4	4g/	.	4b\	2.r	.	4d\	-li	4f#\	-li	4b\	-li	2.ryy	.	4d 4D/	4gg''>\	4bb`>\
!	!	!	!	!	!	!	!	!	!	!	!	!	!	!	!	!	!LO:LB:g=original
4r	.	4r	.	4r	.	.	4r	.	4r	.	4r	.	.	.	4r	4r	4r
!LO:SIC:s=4e:v	!	!	!	!	!	!	!	!	!	!	!	!	!	!	!	!	!
!	!	!	!	!	!	!	!LO:SIC:s=4e:v	!	!	!	!	!	!	!	!	!	!
!	!	!	!	!	!	!	!	!	!	!	!	!	!	!	!LO:SIC:n=1:s=4e:v	!LO:SIC:s=4a:v	!
!	!	!	!	!	!	!	!	!	!	!	!	!	!	!	!LO:SIC:n=2:s=4E:v	!	!
4d\	7 2	4e/	.	4cc#X\	.	.	4d\	et	4e\	et	4cc#X\	et	.	.	4d 4D/	4g/	4cc#X\
=10	=10	=10	=10	=10	=10	=10	=10	=10	=10	=10	=10	=10	=10	=10	=10	=10	=10
*	*	*	*	*	*	*	*	*	*	*	*	*	*	*	*tremolo	*	*
!	!	!	!	!	!	!	!LO:SIC:l:s=ter-:v	!	!	!	!	!	!	!	!	!	!
!	!	!	!	!	!	!	!	!	!	!	!	!	!	!	!LO:TX:a:t=P:w źródle 6 kresek pod tremolo [staccatissimo]:problem	!	!
4d\	6 3	4f#/	.	4dd\	4r	.	4d\	te-	4f#\	ter-	4dd\	ter-	2.ryy	.	8d`< 8D/L	4f#X/	4dd\
.	.	.	.	.	.	.	.	.	.	.	.	.	.	.	8d`< 8D/	.	.
*clefF4	*	*	*	*	*	*	*	*	*	*	*	*	*	*	*	*	*
4r	.	4r	.	4r	4r	.	4d\	-ra	4f#\	-ra	4d/	-ra	.	.	8d`< 8D/	4r	4r
.	.	.	.	.	.	.	.	.	.	.	.	.	.	.	8d`< 8D/	.	.
4D/	5 3	4ff#\	.	4aa\	4D\	glo-	4d\	glo-	4f#\	glo-	4a\	glo-	.	.	8d`< 8D/	4f#/	4a/
.	.	.	.	.	.	.	.	.	.	.	.	.	.	.	8d`< 8D/J	.	.
*	*	*	*	*	*	*	*	*	*	*	*	*	*	*	*Xtremolo	*	*
!	!	!	!	!LO:LB:g=original	!	!	!LO:LB:g=original	!	!	!	!	!	!	!	!	!	!
=11	=11	=11	=11	=11	=11	=11	=11	=11	=11	=11	=11	=11	=11	=11	=11	=11	=11
*	*	*	*	*	*	*	*	*	*	*	*	*	*	*^	*	*	*
4D/	6 4	4gg\	.	4bb\	4D\	-ri-	4d\	-ri-	4g\	-ri-	4b\	-ri-	2.ryy	4d/	4D/	4d 4D/	4g/	4b/
4r	.	4r	.	4r	4r	.	4r	.	4r	.	4r	.	.	4r	4ryy	4r	4r	4r
!LO:SIC:s=4E:v	!	!	!	!LO:SIC:s=4ccc#:v	!	!	!	!	!	!	!	!	!	!	!	!	!	!
!	!	!	!	!	!LO:SIC:s=4E:v	!	!LO:SIC:s=4e:v	!	!	!	!	!	!	!	!	!	!	!
!	!	!	!	!	!	!	!	!	!	!	!LO:SIC:s=4cc#:v	!	!	!	!	!	!	!
!	!	!	!	!	!	!	!	!	!	!	!	!	!	!LO:SIC:s=4c#:v	!LO:SIC:s=4E:v	!	!	!
!	!	!	!	!	!	!	!	!	!	!	!	!	!	!	!	!LO:SIC:n=1:s=4e:v	!	!
!	!	!	!	!	!	!	!	!	!	!	!	!	!	!	!	!LO:SIC:n=2:s=4E:v	!	!
4D/	7 3	4ee\	.	4ccc\	4D\	-a	4d\	-a	4e\	-a	4cc\	-a	.	4d/	4D/	4d 4D/	4e/	4cc#X\
=12	=12	=12	=12	=12	=12	=12	=12	=12	=12	=12	=12	=12	=12	=12	=12	=12	=12	=12
4D/	8 3	4ff#\	.	4ddd\	4D\	tu-	4.d\	tu-	4f#\	tu-	4.dd\	tu-	2.ryy	4d/	4D/	4d 4D/	4d/	4dd\
8d`>\L	.	8dd/L	.	8ddd\L	(>8d\L	.	.	.	8dd\L	.	.	.	.	8d`</L	2ryy	8d`</L	8d`</L	8dd\L
8A`>\	.	8a/	.	8aa\	8A\	.	8A\L	.	8a\	.	8a\L	.	.	8A`</	.	8A`</	8a`</	8aa\
8F#`>\	.	8f#/	.	8ff#\	8F#\	.	8F#\	.	8f#\	.	8f#\	.	.	8F#`</	.	8F#`</	8f#X`</	8ff#\
8D`>\J	.	8d/J	.	8dd\J	8D\J)	.	8D\J	.	8d\J	.	8d\J	.	.	8D`</J	.	8D`</J	8d`</J	8dd\J
!	!	!LO:LB:g=original	!	!	!	!	!	!	!	!	!	!	!	!	!	!	!	!
=13	=13	=13	=13	=13	=13	=13	=13	=13	=13	=13	=13	=13	=13	=13	=13	=13	=13	=13
4A\	.	4a/	.	4aa\	4A\	-a	4A\	-a	4a\	-a	4a\	-a	2.ryy	4A/	4AA/	4A 4AA/	4a/	4aa\
!	!	!	!	!	!LO:LB:g=original	!	!	!	!	!	!	!	!	!	!	!	!	!
8A`>\L	.	4r	.	4r	4r	.	4r	.	4r	.	4r	.	.	4r	2ryy	4r	4r	4r
8G`>\	.	.	.	.	.	.	.	.	.	.	.	.	.	.	.	.	.	.
8F#`>\	.	4r	.	4r	4r	.	4r	.	4r	.	4r	.	.	4r	.	4r	4r	4r
8E`>\J	.	.	.	.	.	.	.	.	.	.	.	.	.	.	.	.	.	.
*	*	*	*	*	*	*	*	*	*	*	*	*	*	*v	*v	*	*	*
=14	=14	=14	=14	=14	=14	=14	=14	=14	=14	=14	=14	=14	=14	=14	=14	=14	=14
!	!	!LO:TX:a:Bi:t=1.	!	!LO:TX:b:Bi:t=1.	!	!	!	!	!	!	!	!	!	!LO:TX:a:Bi:t=1.	!LO:TX:a:Bi:t=1.	!LO:TX:a:Bi:t=1.	!LO:TX:a:Bi:t=1.
4D`>/	.	2.r	.	2.r	4D\	o-	4d\	o-	4d\	o-	4dd\	o-	2.ryy	2.r	2.r	2.r	2.r
4r	.	.	.	.	4D\	-ſsa	4d\	-san-	4d\	-sa-	4dd\	-ſsa-	.	.	.	.	.
!	!	!	!	!	!LO:SIC:l:s=-nna:v	!	!	!	!	!	!	!	!	!	!	!	!
4r	.	.	.	.	4D\	-na	4d\	-na	4d\	-n(na)	4dd\	-n(na)	.	.	.	.	.
=15	=15	=15	=15	=15	=15	=15	=15	=15	=15	=15	=15	=15	=15	=15	=15	=15	=15
*	*	*	*	*	*	*	*	*	*	*	*	*	*	*^	*	*	*
4G\	.	4g/	.	16dd/LL	4G\	in	2d\	in	4g\	in	4b\	in	2.ryy	4d/	4D/	4d 4D/	2g/	2b\
.	.	.	.	16d/	.	.	.	.	.	.	.	.	.	.	.	.	.	.
.	.	.	.	16d/	.	.	.	.	.	.	.	.	.	.	.	.	.	.
.	.	.	.	16d/JJ	.	.	.	.	.	.	.	.	.	.	.	.	.	.
*	*	*	*	*tremolo	*	*	*	*	*	*	*	*	*	*	*	*	*	*
4r	.	4r	.	16d/LL	4r	.	.	.	4r	.	4r	.	.	4r	2ryy	4r	.	.
.	.	.	.	16d/	.	.	.	.	.	.	.	.	.	.	.	.	.	.
.	.	.	.	16d/	.	.	.	.	.	.	.	.	.	.	.	.	.	.
.	.	.	.	16d/JJ	.	.	.	.	.	.	.	.	.	.	.	.	.	.
*	*	*	*	*Xtremolo	*	*	*	*	*	*	*	*	*	*	*	*	*	*
!	!	!	!	!LO:TX:a:t=P:mixed beam:problem	!	!	!	!	!	!	!	!	!	!	!	!	!	!
4F#\	n x	4a/	.	16ccn\LL	4F#\	ex-	4d\	ex-	4a\	ex-	4ccn\	ex-	.	4r	.	4r	4a/	4ccn\
.	6 5	.	.	16d/	.	.	.	.	.	.	.	.	.	.	.	.	.	.
.	.	.	.	16d/	.	.	.	.	.	.	.	.	.	.	.	.	.	.
.	.	.	.	16d/JJ	.	.	.	.	.	.	.	.	.	.	.	.	.	.
!	!	!	!	!	!	!	!	!	!LO:LB:g=original	!	!	!	!	!	!	!	!	!
=16	=16	=16	=16	=16	=16	=16	=16	=16	=16	=16	=16	=16	=16	=16	=16	=16	=16	=16
!	!	!	!	!LO:TX:a:t=P:mixed beam:problem	!	!	!	!	!	!	!	!	!	!	!	!	!	!
!	!	!	!	!	!	!	!	!	!	!	!LO:SIC:l:s=-cel-:v	!	!	!	!	!	!	!
4G\	.	4g/	.	16b\LL	(>4G\	-cel-	2.d\	-cel-	(>4g\	-cel-	(>4b\	-el-	2.ryy	4d/	4D/	4d 4D/	2g/	2b\
.	.	.	.	16d/	.	.	.	.	.	.	.	.	.	.	.	.	.	.
.	.	.	.	16d/	.	.	.	.	.	.	.	.	.	.	.	.	.	.
.	.	.	.	16d/JJ	.	.	.	.	.	.	.	.	.	.	.	.	.	.
*	*	*	*	*tremolo	*	*	*	*	*	*	*	*	*	*	*	*	*	*
4r	.	4r	.	16d/LL	4r	.	.	.	4r	.	4r	.	.	4r	2ryy	4r	.	.
.	.	.	.	16d/	.	.	.	.	.	.	.	.	.	.	.	.	.	.
.	.	.	.	16d/	.	.	.	.	.	.	.	.	.	.	.	.	.	.
.	.	.	.	16d/JJ	.	.	.	.	.	.	.	.	.	.	.	.	.	.
*	*	*	*	*Xtremolo	*	*	*	*	*	*	*	*	*	*	*	*	*	*
!	!	!	!	!LO:TX:a:t=P:mixed beam:problem	!	!	!	!	!	!	!	!	!	!	!	!	!	!
4F#\	n x	4a/	.	16cc\LL	4F#\)	.	.	.	4a\)	.	4cc\)	.	.	4r	.	4r	4a/	4cc\
.	6 5\	.	.	16d/	.	.	.	.	.	.	.	.	.	.	.	.	.	.
.	.	.	.	16d/	.	.	.	.	.	.	.	.	.	.	.	.	.	.
.	.	.	.	16d/JJ	.	.	.	.	.	.	.	.	.	.	.	.	.	.
!	!	!	!	!	!	!	!	!	!	!	!LO:LB:g=original	!	!	!	!	!LO:LB:g=original	!	!
=17	=17	=17	=17	=17	=17	=17	=17	=17	=17	=17	=17	=17	=17	=17	=17	=17	=17	=17
4G\	.	4g/	.	4b 4d\	4G\	-sis	4d\	-sis	4g\	-sis	4b\	-sis	2.ryy	4d/	4D/	4d 4D/	4g/	4b\
4GG/	.	4G/	.	4g 4G/	4r	.	4r	.	4r	.	4r	.	.	4r	2ryy	4r	4g/	4b\
4r	.	4r	.	4r	4r	.	4r	.	4r	.	4r	.	.	4r	.	4r	4r	4r
!	!	!	!	!	!	!	!LO:LB:g=original	!	!	!	!	!	!	!	!	!	!	!
*	*	*	*	*	*	*	*	*	*	*	*	*	*	*v	*v	*	*	*
=18	=18	=18	=18	=18	=18	=18	=18	=18	=18	=18	=18	=18	=18	=18	=18	=18	=18
*	*	*	*	*	*	*	*	*ij	*	*	*	*	*	*	*	*	*
!LO:TX:a:Bi:t=1	!	!LO:TX:a:Bi:t=1.	!	!LO:TX:b:Bi:t=1.	!	!	!	!	!	!	!	!	!	!LO:TX:a:Bi:t=1.	!LO:TX:a:Bi:t=6.	!LO:TX:a:Bi:t=1.	!LO:TX:a:Bi:t=1.
!	!	!	!	!	!	!	!	!	!	!	!	!	!	!	!LO:N:vis=00	!	!
2.r	.	2.r	.	2.r	4E\	o-	4e\	o-	4e\	o-	4ee\	o-	2.ryy	2.r	0.r	2.r	2.r
.	.	.	.	.	4E\	-ſa	4e\	-san-	4e\	-ſa-	4ee\	-ſa-	.	.	.	.	.
!	!	!	!	!	!	!	!	!	!LO:SIC:s=4e:v	!	!	!	!	!	!	!	!
!	!	!	!	!	!LO:SIC:l:s=-nna:v	!	!	!	!	!	!LO:SIC:l:s=-nna:v	!	!	!	!	!	!
.	.	.	.	.	4E\	-na	4e\	-na	4f#\	-n(na)	4ee\	-na	.	.	.	.	.
!LO:LB:g=original	!	!	!	!	!	!	!	!	!	!	!	!	!	!	!	!	!
=19	=19	=19	=19	=19	=19	=19	=19	=19	=19	=19	=19	=19	=19	=19	=19	=19	=19
*	*	*	*	*	*	*	*	*	*	*	*	*	*	*^	*	*	*
!	!	!	!	!LO:TX:a:t=P:mixed beam:problem	!	!	!	!	!	!	!	!	!	!	!	!	!	!
4A\	# x	4a/	.	16cc#X\LL	4A\	in	2e\	in	4a\	in	4cc#X\	in	2.ryy	4e/	4A\	.	2a/	2cc#X\
.	.	.	.	16e/	.	.	.	.	.	.	.	.	.	.	.	.	.	.
.	.	.	.	16e/	.	.	.	.	.	.	.	.	.	.	.	.	.	.
.	.	.	.	16e/JJ	.	.	.	.	.	.	.	.	.	.	.	.	.	.
*	*	*	*	*tremolo	*	*	*	*	*	*	*	*	*	*	*	*	*	*
4r	.	4r	.	16e/LL	4r	.	.	.	4r	.	4r	.	.	4r	4ryy	.	.	.
.	.	.	.	16e/	.	.	.	.	.	.	.	.	.	.	.	.	.	.
.	.	.	.	16e/	.	.	.	.	.	.	.	.	.	.	.	.	.	.
.	.	.	.	16e/JJ	.	.	.	.	.	.	.	.	.	.	.	.	.	.
*	*	*	*	*Xtremolo	*	*	*	*	*	*	*	*	*	*	*	*	*	*
!	!	!	!	!LO:TX:a:t=P:mixed beam:problem	!	!	!	!	!	!	!	!	!	!	!	!	!	!
4G#X\	6 5	4b/	.	16dd\LL	(>4G#X\	ex-	4e\	ex-	4b\	ex-	4dd\	ex-	.	4e/	4e\	.	4b/	4dd\
.	.	.	.	16e/	.	.	.	.	.	.	.	.	.	.	.	.	.	.
.	.	.	.	16e/	.	.	.	.	.	.	.	.	.	.	.	.	.	.
.	.	.	.	16e/JJ	.	.	.	.	.	.	.	.	.	.	.	.	.	.
!	!	!	!	!LO:LB:g=original	!	!	!	!	!	!	!	!	!	!	!	!	!	!
=20	=20	=20	=20	=20	=20	=20	=20	=20	=20	=20	=20	=20	=20	=20	=20	=20	=20	=20
!	!	!	!	!LO:TX:a:t=P:mixed beam:problem	!	!	!	!	!	!	!	!	!	!	!	!	!	!
!	!	!	!	!LO:SIC:s=16cc#	!	!	!	!	!	!	!	!	!	!	!	!	!	!
!	!	!	!	!	!	!	!	!	!	!	!LO:SIC:s=4cc#:v	!	!	!	!	!	!	!
4A\	.	4a/	.	16cc\LL	4A\)	-cel-	2.e\	-cel-	(>4a\	-cel-	(>4cc\	-cel-	2.ryy	4e/	4A\	.	2a/	2cc#X\
.	.	.	.	16e/	.	.	.	.	.	.	.	.	.	.	.	.	.	.
.	.	.	.	16e/	.	.	.	.	.	.	.	.	.	.	.	.	.	.
.	.	.	.	16e/JJ	.	.	.	.	.	.	.	.	.	.	.	.	.	.
*	*	*	*	*tremolo	*	*	*	*	*	*	*	*	*	*	*	*	*	*
4r	.	4r	.	16e/LL	4r	.	.	.	4r	.	4r	.	.	4r	4ryy	.	.	.
.	.	.	.	16e/	.	.	.	.	.	.	.	.	.	.	.	.	.	.
.	.	.	.	16e/	.	.	.	.	.	.	.	.	.	.	.	.	.	.
.	.	.	.	16e/JJ	.	.	.	.	.	.	.	.	.	.	.	.	.	.
*	*	*	*	*Xtremolo	*	*	*	*	*	*	*	*	*	*	*	*	*	*
!	!	!	!	!LO:TX:a:t=P:mixed beam:problem	!	!	!	!	!	!	!	!	!	!	!	!	!	!
!	!	!	!	!	!LO:SIC:s=4G:v	!	!	!	!	!	!	!	!	!	!	!	!	!
4G\	6 5	4b/	.	16dd\LL	(>4G#X\	.	.	.	4b\)	.	4dd\)	.	.	4e/	4e\	.	4b/	4dd\
.	.	.	.	16e/	.	.	.	.	.	.	.	.	.	.	.	.	.	.
.	.	.	.	16e/	.	.	.	.	.	.	.	.	.	.	.	.	.	.
.	.	.	.	16e/JJ	.	.	.	.	.	.	.	.	.	.	.	.	.	.
=21	=21	=21	=21	=21	=21	=21	=21	=21	=21	=21	=21	=21	=21	=21	=21	=21	=21	=21
!	!	!	!LO:DY:a	!	!	!	!	!	!	!	!	!	!	!	!	!	!	!
!	!	!	!	!LO:SIC:s=4cc#:v	!	!	!	!	!	!	!LO:SIC:s=4cc#:v	!	!	!	!	!	!	!
!	!	!	!	!	!	!	!	!	!	!	!LO:SIC:l:s=-sis:v	!	!	!	!	!	!	!
4A\	.	4a\	p	4cc\	4A\)	-sis	4e\	-sis	4a\	-sis	4cc\	-sil	2.ryy	4e/	4A\	.	4a/	4cc#X\
!	!	!	!	!LO:SIC:s=8cc#:v	!	!	!	!	!	!	!	!	!	!	!	!	!	!
4r	.	8a\L	.	(>8cc\L	4r	.	4r	.	4r	.	4r	.	.	4r	2ryy	.	4r	4r
.	.	8b\	.	8dd\)	.	.	.	.	.	.	.	.	.	.	.	.	.	.
4r	.	8cc#\	.	(>8ee\	4r	.	4r	.	4r	.	4r	.	.	4r	.	.	4r	4r
.	.	8dd\J	.	8ff#\J)	.	.	.	.	.	.	.	.	.	.	.	.	.	.
*	*	*	*	*	*	*	*	*Xij	*	*	*	*	*	*	*	*	*	*
!	!	!	!	!	!	!	!	!	!	!	!	!	!	!LO:LB:g=original	!	!	!LO:LB:g=original	!
*	*	*	*	*	*	*	*	*	*	*	*	*	*	*v	*v	*	*	*
=22	=22	=22	=22	=22	=22	=22	=22	=22	=22	=22	=22	=22	=22	=22	=22	=22	=22
!LO:TX:a:Bi:t=2	!	!	!	!	!LO:TX:b:Bi:t=2.	!	!LO:TX:a:Bi:t=2	!	!	!	!	!	!	!LO:TX:b:Bi:t=2.	!	!LO:TX:a:Bi:t=2.	!LO:TX:b:Bi:t=2.
!LO:N:vis=0	!	!	!	!	!LO:N:vis=0	!	!LO:N:vis=0	!	!	!	!	!	!	!LO:N:vis=0	!LO:N:vis=0	!LO:N:vis=0	!LO:N:vis=0
1.r	.	4ee\	.	(>4gg\	1.r	.	1.r	.	(>4ee\	o-	4gg\	o-	2.ryy	1.r	1.r	1.r	1.r
!	!	!	!	!	!	!	!	!	!LO:SIC:s=4cc#:v	!	!	!	!	!	!	!	!
.	.	4cc#\	.	4ee\)	.	.	.	.	4cc\)	-ſa-	4ee\	-ſa-	.	.	.	.	.
!	!	!	!	!	!	!	!	!	!	!	!LO:SIC:l:s=-nna:v	!	!	!	!	!	!
.	.	4dd\	.	4ff#`>\	.	.	.	.	4dd\	-n(na)	4ff#\	-na	.	.	.	.	.
=23	=23	=23	=23	=23	=23	=23	=23	=23	=23	=23	=23	=23	=23	=23	=23	=23	=23
.	.	4g/	.	(>4ee\	.	.	.	.	(>4g\	in	(>4ee\	in	2.ryy	.	.	.	.
.	.	4e/	.	4cc\)	.	.	.	.	4e\)	.	4cc\)	.	.	.	.	.	.
.	.	4f#/	.	4dd`>\	.	.	.	.	4f#\	ex-	4dd\	ex-	.	.	.	.	.
!	!	!	!	!	!LO:TX:a:t=P:w źródle przed łamaniem strony wyblakły tekst:problem	!	!	!	!	!	!	!	!	!	!	!	!
!	!	!	!	!	!LO:PB:g=original	!	!	!	!LO:LB:g=original	!	!	!	!	!	!	!	!
=24	=24	=24	=24	=24	=24	=24	=24	=24	=24	=24	=24	=24	=24	=24	=24	=24	=24
*	*	*	*	*	*	*	*	*	*	*	*	*	*	*^	*	*	*
!	!	!	!	!	!LO:TX:a:t=P:w źródle na początku nowej pięciolini klucz F4 oraz dwa znaki przykluczowe c# f# oraz kasownik an [przyjęto bez zmian znak przykluczowy f#]:problem	!	!	!	!	!	!	!	!	!	!	!	!	!
!	!	!	!LO:DY:a	!	!	!	!	!	!	!	!	!	!	!	!	!	!	!
!LO:SIC:s=4G#:v	!	!LO:SIC:s=4g#:v	!	!	!LO:SIC:s=8G#:v	!	!	!	!	!	!	!	!	!	!	!	!	!
!	!	!	!	!	!	!	!	!	!LO:SIC:s=4g#:v	!	!	!	!	!	!	!	!	!
!	!	!	!	!	!	!	!	!	!	!	!	!	!	!LO:SIC:s=4g#:v	!	!	!LO:SIC:s=4g#:v	!
4Gn\	6 5	4g/	f	4ee\	8G\	in	8B\	in	4g\	-cel-	(>4ee\	-cel-	2.ryy	4g/	4e\	4r	4g/	4ee\
!	!	!	!	!	!LO:SIC:s=8G#:v	!	!	!	!	!	!	!	!	!	!	!	!	!
.	.	.	.	.	8G\	ex-	8B\	ex-	.	.	.	.	.	.	.	.	.	.
4A\	4 x	4f#/	.	4dd\	(>4A\	-cel-	2A\	-cel-	4f#\	.	4dd\)	.	.	4f#/	4d\	4r	4f#/	4dd\
!	!	!	!	!LO:SIC:s=4cc#:v	!	!	!	!	!	!	!	!	!	!	!	!	!	!
!	!	!	!	!	!	!	!	!	!	!	!LO:SIC:s=4cc#:v	!	!	!	!	!	!	!
4AA/	3 x	4e/	.	4cc\	4AA/)	.	.	.	4e\	.	4cc\	.	.	4e/	4A\	4A 4AA/	4e/	4cc#X\
=25	=25	=25	=25	=25	=25	=25	=25	=25	=25	=25	=25	=25	=25	=25	=25	=25	=25	=25
!LO:SIC:s=4AA:v	!	!	!	!	!	!	!	!	!	!	!	!	!	!	!	!	!	!
4BB/	n	4f#/	.	4dd\	4D\	-sis	4A\	-sis	4f#\	-sis	4dd\	-sis	2.ryy	4f#/	4d\	4d 4D/	4f#/	4dd\
4r	.	4r	.	4r	4r	.	4r	.	4r	.	4r	.	.	4r	2ryy	4r	4r	4r
!	!	!	!	!	!	!	!	!	!	!	!	!	!	!	!	!	!	!LO:LB:g=original
4r	.	4r	.	4r	4r	.	4r	.	4r	.	4r	.	.	4r	.	4r	4r	4r
*	*	*	*	*	*	*	*	*	*	*	*	*	*	*v	*v	*	*	*
=26	=26	=26	=26	=26	=26	=26	=26	=26	=26	=26	=26	=26	=26	=26	=26	=26	=26
!LO:TX:a:Bi:t=2	!	!	!	!	!LO:TX:a:Bi:t=2.	!	!LO:TX:a:Bi:t=2	!	!	!	!	!	!	!LO:TX:b:Bi:t=2.	!LO:TX:a:Bi:t=2.	!LO:TX:a:Bi:t=2.	!LO:TX:a:Bi:t=2.
!LO:N:vis=0	!	!	!	!	!LO:N:vis=0	!	!LO:N:vis=0	!	!	!	!	!	!	!LO:N:vis=0	!LO:N:vis=0	!LO:N:vis=0	!LO:N:vis=0
1.r	.	4ee\	.	(>4gg\	1.r	.	1.r	.	4ee\	O-	4gg\	o-	2.ryy	1.r	1.r	1.r	1.r
!	!	!	!LO:DY:a	!	!	!	!	!	!	!	!	!	!	!	!	!	!
!	!	!	!	!	!	!	!	!	!LO:SIC:s=4cc#:v	!	!	!	!	!	!	!	!
.	.	4cc#\	p	4ee\)	.	.	.	.	4cc\	-sa-	4ee\	-ſa-	.	.	.	.	.
!	!	!	!	!	!	!	!	!	!LO:SIC:l:s=-nna:v	!	!	!	!	!	!	!	!
.	.	4dd\	.	4ff#`>\	.	.	.	.	4dd\	-na	4ff#\	-na	.	.	.	.	.
=27	=27	=27	=27	=27	=27	=27	=27	=27	=27	=27	=27	=27	=27	=27	=27	=27	=27
.	.	4g/	.	(>4ee\	.	.	.	.	(>4g\	in	(>4ee\	in	2.ryy	.	.	.	.
!	!	!	!	!LO:SIC:s=4cc#:v	!	!	!	!	!	!	!	!	!	!	!	!	!
.	.	4e/	f	4cc\)	.	.	.	.	4e\	.	4cc#X\)	.	.	.	.	.	.
!	!	!	!	!	!	!	!	!	!	!	!LO:LB:g=original	!	!	!	!	!	!
.	.	4f#/	.	4dd`>\	.	.	.	.	4f#\)	ex-	4dd\	-ex-	.	.	.	.	.
!	!	!LO:LB:g=original	!	!	!	!	!	!	!	!	!	!	!	!	!	!	!
=28	=28	=28	=28	=28	=28	=28	=28	=28	=28	=28	=28	=28	=28	=28	=28	=28	=28
*	*	*	*	*	*	*	*	*	*	*	*	*	*	*^	*	*	*
*	*	*	*	*	*	*ij	*	*	*	*	*	*	*	*	*	*	*	*
4G\	6 5	4g/	.	4ee\	8G\	in	8B\	in	(>4g\	-cel-	(>4ee\	cel-	2.ryy	4g/	4e\	4r	4g/	(>4ee\
.	.	.	.	.	8G\	ex-	8B\	ex-	.	.	.	.	.	.	.	.	.	.
4A\	4 x	4f#/	.	4dd\	4A\	-cel-	2A\	-cel-	4f#\	.	4dd\)	.	.	4f#/	4d\	4r	4f#/	4dd\)
!	!	!	!	!LO:SIC:s=4cc#:v	!	!	!	!	!	!	!	!	!	!	!	!	!	!
4AA/	3 x	4e/	.	4cc\	4AA/	.	.	.	4e\)	.	4cc#X\	.	.	4e/	4A\	4A 4AA/	4e/	4cc#X`>\
!	!	!	!	!	!	!	!LO:LB:g=original	!	!	!	!	!	!	!	!	!	!	!
=29	=29	=29	=29	=29	=29	=29	=29	=29	=29	=29	=29	=29	=29	=29	=29	=29	=29	=29
4D\	.	4f#/	p	4dd\	4D/	-sis	2A\	-sis	4f#\	-sis	4dd\	-sis	2.ryy	4f#/	4d\	2.d 2.D/	4f#/	4dd\
*	*	*	*	*	*	*Xij	*	*	*	*	*	*	*	*	*	*	*	*
4r	.	4r	.	4r	4r	.	.	.	4r	.	4r	.	.	4r	2ryy	.	4r	4r
4r	.	4r	.	4r	4r	.	4r	.	4r	.	4r	.	.	4r	.	.	4r	4r
!	!	!	!	!LO:LB:g=original	!	!	!	!	!LO:LB:g=original	!	!	!	!	!	!	!	!	!
=30	=30	=30	=30	=30	=30	=30	=30	=30	=30	=30	=30	=30	=30	=30	=30	=30	=30	=30
*	*	*	*	*	*	*	*	*ij	*	*	*	*	*	*	*	*	*	*
!LO:TX:a:t=P:znak początku repetycji:problem	!	!	!	!	!	!	!	!	!	!	!	!	!	!	!	!	!	!
8F#\L	n x	8a/	.	8ccn\	2.F#\	in	2.d\	in	2.a\	in	2.ccn\	in	2.ryy	4d/	4D/	2.d 2.D/	2a/	2ccn\
.	6_ 5_	.	.	.	.	.	.	.	.	.	.	.	.	.	.	.	.	.
8D\	.	8r	.	8r	.	.	.	.	.	.	.	.	.	.	.	.	.	.
8F#\	X X	8ccn\	.	8aa\	.	.	.	.	.	.	.	.	.	4r	2ryy	.	.	.
8D\	.	8r	.	8r	.	.	.	.	.	.	.	.	.	.	.	.	.	.
8F#\	.	8a/	.	8cc\	.	.	.	.	.	.	.	.	.	4r	.	.	4a/	4cc\
8D\J	.	8r	.	8r	.	.	.	.	.	.	.	.	.	.	.	.	.	.
=31	=31	=31	=31	=31	=31	=31	=31	=31	=31	=31	=31	=31	=31	=31	=31	=31	=31	=31
8G\L	.	8g/	.	8b\	2.G\	ex-	2.d\	ex-	2.g\	ex-	2.b\	ex-	2.ryy	4d/	4D/	2.d 2.D/	2g/	2b\
8D\	.	8r	.	8r	.	.	.	.	.	.	.	.	.	.	.	.	.	.
8G\	.	8b\	.	8gg\	.	.	.	.	.	.	.	.	.	4r	2ryy	.	.	.
8D\	.	8r	.	8r	.	.	.	.	.	.	.	.	.	.	.	.	.	.
8G\	.	8g/	.	8b\	.	.	.	.	.	.	.	.	.	4r	.	.	4g/	4b\
8D\J	.	8r	.	8r	.	.	.	.	.	.	.	.	.	.	.	.	.	.
!LO:TX:a:t=P:znak końca repetycji:problem	!	!	!	!	!	!	!	!	!	!	!	!	!	!	!	!	!	!
=32	=32	=32	=32	=32	=32	=32	=32	=32	=32	=32	=32	=32	=32	=32	=32	=32	=32	=32
*rep	*	*	*	*	*	*	*	*	*	*	*	*	*	*	*	*	*	*
!LO:TX:a:t=P:powtórzenie taktów oznaczone znakami repetycji:problem	!	!	!	!	!	!	!	!	!	!	!	!	!	!	!	!	!	!
8F#\Lyy	n x	8a/	.	8cc\	2.F#\	-cel-	2.e\	-cel-	2.a\	-cel-	2.cc\	-cel-	2.ryy	4d/	4D/	2.d 2.D/	2a/	2ccn\
.	6_ 5_	.	.	.	.	.	.	.	.	.	.	.	.	.	.	.	.	.
8D\yy	.	8r	.	8r	.	.	.	.	.	.	.	.	.	.	.	.	.	.
8F#\yy	X X	8ccn\	.	8aa\	.	.	.	.	.	.	.	.	.	4r	2ryy	.	.	.
8D\yy	.	8r	.	8r	.	.	.	.	.	.	.	.	.	.	.	.	.	.
8F#\yy	.	8a/	.	8cc\	.	.	.	.	.	.	.	.	.	4r	.	.	4a/	4cc\
8D\Jyy	.	8r	.	8r	.	.	.	.	.	.	.	.	.	.	.	.	.	.
=33	=33	=33	=33	=33	=33	=33	=33	=33	=33	=33	=33	=33	=33	=33	=33	=33	=33	=33
8G\Lyy	.	8g/	.	8b\	2.G\	.	2.d\	.	2.g\	.	2.b\	.	2.ryy	4d/	4D/	2.d 2.D/	2g/	2b\
8D\yy	.	8r	.	8r	.	.	.	.	.	.	.	.	.	.	.	.	.	.
8G\yy	.	8b\	.	8gg\	.	.	.	.	.	.	.	.	.	4r	2ryy	.	.	.
8D\yy	.	8r	.	8r	.	.	.	.	.	.	.	.	.	.	.	.	.	.
8G\yy	.	8g/	.	8b\	.	.	.	.	.	.	.	.	.	4r	.	.	4g/	4b\
8D\Jyy	.	8r	.	8r	.	.	.	.	.	.	.	.	.	.	.	.	.	.
*Xrep	*	*	*	*	*	*	*	*	*	*	*	*	*	*	*	*	*	*
=34	=34	=34	=34	=34	=34	=34	=34	=34	=34	=34	=34	=34	=34	=34	=34	=34	=34	=34
4G\	3	4d/	.	4b/	4G\	.	2.d\	.	(>4g\	.	(>4b\	.	2.ryy	4d/	4D/	2.d 2.D/	4gg\	4bb\
*	*	*	*	*	*	*	*	*	*	*	*	*	*	*tremolo	*tremolo	*	*	*
!	!	!	!	!	!	!	!	!	!	!	!	!	!	!LO:TX:a:t=P:w źródle 4 kropki nad tremolo [staccato]:problem	!LO:TX:a:t=P:w źródle 4 kropki pod tremolo [staccato]:problem	!	!	!
4F#\	3	4d/	.	4a/	4F#\	.	.	.	4f#\	.	4a\)	.	.	8d`>/L	8D`</L	.	4ff#\	4aa\
.	.	.	.	.	.	.	.	.	.	.	.	.	.	8d`>/	8D`</	.	.	.
!	!	!LO:SIC:s=4c#:V	!	!LO:SIC:s=4a:v	!	!	!	!	!	!	!	!	!	!	!	!	!	!
!	!	!	!	!	!	!	!	!	!	!	!LO:SIC:s=4a:v	!	!	!	!	!	!	!
4E\	3	4d/	.	4g/	4E\	.	.	.	4e\)	.	4g\	.	.	8d`>/	8D`</	.	4ee\	4aa\
.	.	.	.	.	.	.	.	.	.	.	.	.	.	8d`>/J	8D`</J	.	.	.
*	*	*	*	*	*	*	*	*	*	*	*	*	*	*Xtremolo	*Xtremolo	*	*	*
=35	=35	=35	=35	=35	=35	=35	=35	=35	=35	=35	=35	=35	=35	=35	=35	=35	=35	=35
2.D\	5 3	2f#;>/	.	2a;>/	2.D;>\	-sis	2.d\	-sis	2f#;>\	-sis	2a;>\	-sis	2.ryy	2d;>/	2D/	2.d 2.D/	2ff#;>\	2aa;>\
*	*	*	*	*	*	*	*	*Xij	*	*	*	*	*	*	*	*	*	*
.	.	4r	.	4r	.	.	.	.	4r	.	4r	.	.	4r	4ryy	.	4r	4r
!	!	!	!	!LO:TX:b:Bi:t=V&colon; Benedictus.	!	!	!	!	!	!	!	!	!	!	!	!	!	!
!	!	!	!	!	!LO:TX:a:t=P:ozdobna kreska końcowa &colon;||:problem	!	!	!	!	!	!LO:TX:a:t=P:ozdobna kreska końcowa &colon;||:problem	!	!	!	!	!	!	!
!	!	!	!	!	!	!	!	!	!	!	!	!	!	!LO:TX:a:t=P:ozdobna kreska końcowa &colon;||:problem	!	!LO:TX:a:t=P:ozdobna kreska końcowa &colon;||:problem	!LO:TX:a:t=P:ozdobna kreska końcowa &colon;||:problem	!LO:TX:a:t=P:ozdobna kreska końcowa &colon;||:problem
!	!	!	!	!LO:TX:a:t=P:ozdobna kreska końcowa &colon;||:problem	!	!	!	!	!	!	!	!	!	!	!	!	!	!
*	*	*	*	*	*	*	*	*	*	*	*	*	*	*v	*v	*	*	*
==	==	==	==	==	==	==	==	==	==	==	==	==	==	==	==	==	==
*-	*-	*-	*-	*-	*-	*-	*-	*-	*-	*-	*-	*-	*-	*-	*-	*-	*-
!!title: @{OTL};
!!!RDF**kern: > = above
!!!RDF**kern: < = below
!!!ENC: Berenika Jozajtis
!!!END: 2020-06-22
!!!EED: Wojciech Jakubiak-Danek
!!!EST: 2020-12-20
!!!URL-scan: http://repozytorium.nifc.pl/skany/pl-cz-nut--iii-33
!!!ONB-nifc: UWAGA: części Mszy: Kyrie, Christe, Gloria, Credo, Sanctus, Benedictus, Agnus Dei
